static/img/kroki/2d9a26f7d9b3d6cc63aa9a095624152d.svg

<?xml version="1.0" encoding="us-ascii" standalone="no"?><svg xmlns="http://www.w3.org/2000/svg" xmlns:xlink="http://www.w3.org/1999/xlink" contentStyleType="text/css" height="374px" preserveAspectRatio="none" style="width:430px;height:374px;" version="1.1" viewBox="0 0 430 374" width="430px" zoomAndPan="magnify"><defs/><g><!--class azure_network_virtual_wan_vpn_connection--><g id="elem_azure_network_virtual_wan_vpn_connection"><rect codeLine="23" fill="#3D176E" height="39.7891" id="azure_network_virtual_wan_vpn_connection" rx="2.5" ry="2.5" style="stroke:#000D19;stroke-width:0.5;" width="416" x="7" y="328.58"/><ellipse cx="22" cy="348.4745" fill="#ADD1B2" rx="11" ry="11" style="stroke:#181818;stroke-width:1.0;"/><path d="M24.9688,354.1152 Q24.3906,354.412 23.75,354.5527 Q23.1094,354.7089 22.4063,354.7089 Q19.9063,354.7089 18.5781,353.0683 Q17.2656,351.412 17.2656,348.287 Q17.2656,345.162 18.5781,343.5058 Q19.9063,341.8495 22.4063,341.8495 Q23.1094,341.8495 23.75,342.0058 Q24.4063,342.162 24.9688,342.4589 L24.9688,345.1777 Q24.3438,344.5995 23.75,344.3339 Q23.1563,344.0527 22.5313,344.0527 Q21.1875,344.0527 20.5,345.1308 Q19.8125,346.1933 19.8125,348.287 Q19.8125,350.3808 20.5,351.4589 Q21.1875,352.5214 22.5313,352.5214 Q23.1563,352.5214 23.75,352.2558 Q24.3438,351.9745 24.9688,351.3964 L24.9688,354.1152 Z " fill="#000000"/><text fill="#D9B8FF" font-family="Helvetica" font-size="17" lengthAdjust="spacing" textLength="374" x="41" y="354.3598">azure_network_virtual_wan_vpn_connection</text></g><!--class microsoft_resource--><g id="elem_microsoft_resource"><rect codeLine="26" fill="#3D176E" height="39.7891" id="microsoft_resource" rx="2.5" ry="2.5" style="stroke:#000D19;stroke-width:0.5;" width="200" x="24" y="167.79"/><ellipse cx="39" cy="187.6845" fill="#ADD1B2" rx="11" ry="11" style="stroke:#181818;stroke-width:1.0;"/><path d="M41.9688,193.3252 Q41.3906,193.622 40.75,193.7627 Q40.1094,193.9189 39.4063,193.9189 Q36.9063,193.9189 35.5781,192.2783 Q34.2656,190.622 34.2656,187.497 Q34.2656,184.372 35.5781,182.7158 Q36.9063,181.0595 39.4063,181.0595 Q40.1094,181.0595 40.75,181.2158 Q41.4063,181.372 41.9688,181.6689 L41.9688,184.3877 Q41.3438,183.8095 40.75,183.5439 Q40.1563,183.2627 39.5313,183.2627 Q38.1875,183.2627 37.5,184.3408 Q36.8125,185.4033 36.8125,187.497 Q36.8125,189.5908 37.5,190.6689 Q38.1875,191.7314 39.5313,191.7314 Q40.1563,191.7314 40.75,191.4658 Q41.3438,191.1845 41.9688,190.6064 L41.9688,193.3252 Z " fill="#000000"/><text fill="#D9B8FF" font-family="Helvetica" font-size="17" lengthAdjust="spacing" textLength="158" x="58" y="193.5698">microsoft_resource</text></g><!--class resource--><g id="elem_resource"><rect codeLine="29" fill="#3D176E" height="39.7891" id="resource" rx="2.5" ry="2.5" style="stroke:#000D19;stroke-width:0.5;" width="113" x="158.5" y="7"/><ellipse cx="173.5" cy="26.8945" fill="#ADD1B2" rx="11" ry="11" style="stroke:#181818;stroke-width:1.0;"/><path d="M176.4688,32.5352 Q175.8906,32.832 175.25,32.9727 Q174.6094,33.1289 173.9063,33.1289 Q171.4063,33.1289 170.0781,31.4883 Q168.7656,29.832 168.7656,26.707 Q168.7656,23.582 170.0781,21.9258 Q171.4063,20.2695 173.9063,20.2695 Q174.6094,20.2695 175.25,20.4258 Q175.9063,20.582 176.4688,20.8789 L176.4688,23.5977 Q175.8438,23.0195 175.25,22.7539 Q174.6563,22.4727 174.0313,22.4727 Q172.6875,22.4727 172,23.5508 Q171.3125,24.6133 171.3125,26.707 Q171.3125,28.8008 172,29.8789 Q172.6875,30.9414 174.0313,30.9414 Q174.6563,30.9414 175.25,30.6758 Q175.8438,30.3945 176.4688,29.8164 L176.4688,32.5352 Z " fill="#000000"/><text fill="#D9B8FF" font-family="Helvetica" font-size="17" lengthAdjust="spacing" textLength="71" x="192.5" y="32.7798">resource</text></g><!--class tunnel--><g id="elem_tunnel"><rect codeLine="32" fill="#3D176E" height="39.7891" id="tunnel" rx="2.5" ry="2.5" style="stroke:#000D19;stroke-width:0.5;" width="97" x="259.5" y="167.79"/><ellipse cx="274.5" cy="187.6845" fill="#ADD1B2" rx="11" ry="11" style="stroke:#181818;stroke-width:1.0;"/><path d="M277.4688,193.3252 Q276.8906,193.622 276.25,193.7627 Q275.6094,193.9189 274.9063,193.9189 Q272.4063,193.9189 271.0781,192.2783 Q269.7656,190.622 269.7656,187.497 Q269.7656,184.372 271.0781,182.7158 Q272.4063,181.0595 274.9063,181.0595 Q275.6094,181.0595 276.25,181.2158 Q276.9063,181.372 277.4688,181.6689 L277.4688,184.3877 Q276.8438,183.8095 276.25,183.5439 Q275.6563,183.2627 275.0313,183.2627 Q273.6875,183.2627 273,184.3408 Q272.3125,185.4033 272.3125,187.497 Q272.3125,189.5908 273,190.6689 Q273.6875,191.7314 275.0313,191.7314 Q275.6563,191.7314 276.25,191.4658 Q276.8438,191.1845 277.4688,190.6064 L277.4688,193.3252 Z " fill="#000000"/><text fill="#D9B8FF" font-family="Helvetica" font-size="17" lengthAdjust="spacing" textLength="55" x="293.5" y="193.5698">tunnel</text></g><!--reverse link microsoft_resource to azure_network_virtual_wan_vpn_connection--><g id="link_microsoft_resource_azure_network_virtual_wan_vpn_connection"><path codeLine="35" d="M143.9298,223.4573 C161.4198,253.9773 186.47,297.69 203.98,328.25 " fill="none" id="microsoft_resource-backto-azure_network_virtual_wan_vpn_connection" style="stroke:#FFAF37;stroke-width:2.0;"/><polygon fill="none" points="134.98,207.84,138.724,226.4406,149.1356,220.4741,134.98,207.84" style="stroke:#FFAF37;stroke-width:2.0;"/></g><!--reverse link tunnel to azure_network_virtual_wan_vpn_connection--><g id="link_tunnel_azure_network_virtual_wan_vpn_connection"><path codeLine="36" d="M287.685,223.3732 C269.815,253.8932 244.16,297.69 226.26,328.25 " fill="none" id="tunnel-backto-azure_network_virtual_wan_vpn_connection" style="stroke:#FFAF37;stroke-width:2.0;"/><polygon fill="none" points="296.78,207.84,282.5073,220.3416,292.8628,226.4049,296.78,207.84" style="stroke:#FFAF37;stroke-width:2.0;"/></g><!--reverse link resource to microsoft_resource--><g id="link_resource_microsoft_resource"><path codeLine="37" d="M195.0702,62.6673 C177.5802,93.1873 152.53,136.9 135.02,167.46 " fill="none" id="resource-backto-microsoft_resource" style="stroke:#FFAF37;stroke-width:2.0;"/><polygon fill="none" points="204.02,47.05,189.8644,59.6841,200.276,65.6506,204.02,47.05" style="stroke:#FFAF37;stroke-width:2.0;"/></g><!--reverse link resource to tunnel--><g id="link_resource_tunnel"><path codeLine="38" d="M235.315,62.5832 C253.185,93.1032 278.84,136.9 296.74,167.46 " fill="none" id="resource-backto-tunnel" style="stroke:#FFAF37;stroke-width:2.0;"/><polygon fill="none" points="226.22,47.05,230.1372,65.6149,240.4927,59.5516,226.22,47.05" style="stroke:#FFAF37;stroke-width:2.0;"/></g><!--SRC=[bP1FJm8n4CNl-ocQS2O1YGA95o0nUY56l6zAEuLcTpkRwImRKB-xuAAfNVxezRtVp7ipQwj1G57oLXHGB85yuZFhIaco41CYh6UO8ucECT8CXh7vW8wl0dDPW7Y4V0DibOo9rxLLcGFlnKrWJQNALeILqyrw9kdytWB70JNBfVSJPhBBYY4eeyVBaJ4n6I_j37H_U0Sj34a37P5UhwVxunYv6dNnxXzYONSW-k7JviZGgjcA-A8kjZmGGSdMeT_-sOxFKclhLk8sq5wQJkI0VkcBjTHO7sWZSn_6U0O2v6q9izPLC1vfCpm9Fvs34tLudP2xYY1rm3LIbcuiSINpj9OktPGkLUWSABRen5kIV1nd2gi8FHfE2JnMf21qJsbSxVVaZN9Y-lwzs-t-kKfotFRFgIYjNICccfZa4m00]--></g></svg>

<svg xmlns="http://www.w3.org/2000/svg" width="430" height="374" viewBox="0 0 430 374"><rect width="416" height="39.789" x="7" y="328.58" fill="#3D176E" rx="2.5" ry="2.5" style="stroke:#000d19;stroke-width:.5"/><circle cx="22" cy="348.474" r="11" fill="#ADD1B2" style="stroke:#181818;stroke-width:1"/><path d="M24.969 354.115q-.578.297-1.219.438-.64.156-1.344.156-2.5 0-3.828-1.64-1.312-1.657-1.312-4.782t1.312-4.781q1.328-1.656 3.828-1.656.703 0 1.344.156.656.156 1.219.453v2.719q-.625-.579-1.219-.844-.594-.281-1.219-.281-1.343 0-2.031 1.078-.687 1.062-.687 3.156t.687 3.172q.688 1.062 2.031 1.062.625 0 1.219-.265.594-.281 1.219-.86z"/><text x="41" y="354.36" fill="#D9B8FF" font-family="Helvetica" font-size="17" textLength="374">azure_network_virtual_wan_vpn_connection</text><rect width="200" height="39.789" x="24" y="167.79" fill="#3D176E" rx="2.5" ry="2.5" style="stroke:#000d19;stroke-width:.5"/><circle cx="39" cy="187.685" r="11" fill="#ADD1B2" style="stroke:#181818;stroke-width:1"/><path d="M41.969 193.325q-.578.297-1.219.438-.64.156-1.344.156-2.5 0-3.828-1.64-1.312-1.657-1.312-4.782t1.312-4.781q1.328-1.656 3.828-1.656.703 0 1.344.156.656.156 1.219.453v2.719q-.625-.578-1.219-.844-.594-.281-1.219-.281-1.343 0-2.031 1.078-.687 1.062-.687 3.156t.687 3.172q.688 1.062 2.031 1.062.625 0 1.219-.265.594-.281 1.219-.86z"/><text x="58" y="193.57" fill="#D9B8FF" font-family="Helvetica" font-size="17" textLength="158">microsoft_resource</text><rect width="113" height="39.789" x="158.5" y="7" fill="#3D176E" rx="2.5" ry="2.5" style="stroke:#000d19;stroke-width:.5"/><circle cx="173.5" cy="26.895" r="11" fill="#ADD1B2" style="stroke:#181818;stroke-width:1"/><path d="M176.469 32.535q-.578.297-1.219.438-.64.156-1.344.156-2.5 0-3.828-1.64-1.312-1.657-1.312-4.782t1.312-4.781q1.328-1.656 3.828-1.656.703 0 1.344.156.656.156 1.219.453v2.719q-.625-.578-1.219-.844-.594-.281-1.219-.281-1.344 0-2.031 1.078-.687 1.062-.687 3.156t.687 3.172q.688 1.062 2.031 1.062.625 0 1.219-.265.594-.281 1.219-.86z"/><text x="192.5" y="32.78" fill="#D9B8FF" font-family="Helvetica" font-size="17" textLength="71">resource</text><rect width="97" height="39.789" x="259.5" y="167.79" fill="#3D176E" rx="2.5" ry="2.5" style="stroke:#000d19;stroke-width:.5"/><circle cx="274.5" cy="187.685" r="11" fill="#ADD1B2" style="stroke:#181818;stroke-width:1"/><path d="M277.469 193.325q-.578.297-1.219.438-.64.156-1.344.156-2.5 0-3.828-1.64-1.312-1.657-1.312-4.782t1.312-4.781q1.328-1.656 3.828-1.656.703 0 1.344.156.656.156 1.219.453v2.719q-.625-.578-1.219-.844-.594-.281-1.219-.281-1.344 0-2.031 1.078-.687 1.062-.687 3.156t.687 3.172q.688 1.062 2.031 1.062.625 0 1.219-.265.594-.281 1.219-.86z"/><text x="293.5" y="193.57" fill="#D9B8FF" font-family="Helvetica" font-size="17" textLength="55">tunnel</text><path fill="none" d="M143.93 223.457c17.49 30.52 42.54 74.233 60.05 104.793m-69-120.41 3.744 18.6 10.412-5.966z" style="stroke:#ffaf37;stroke-width:2"/><g fill="none"><path d="M287.685 223.373c-17.87 30.52-43.525 74.317-61.425 104.877" style="stroke:#ffaf37;stroke-width:2"/><path d="m296.78 207.84-14.273 12.502 10.356 6.063z" style="stroke:#ffaf37;stroke-width:2"/></g><g fill="none"><path d="M195.07 62.667c-17.49 30.52-42.54 74.233-60.05 104.793" style="stroke:#ffaf37;stroke-width:2"/><path d="m204.02 47.05-14.156 12.634 10.412 5.967z" style="stroke:#ffaf37;stroke-width:2"/></g><g fill="none"><path d="M235.315 62.583c17.87 30.52 43.525 74.317 61.425 104.877" style="stroke:#ffaf37;stroke-width:2"/><path d="m226.22 47.05 3.917 18.565 10.356-6.063z" style="stroke:#ffaf37;stroke-width:2"/></g></svg>
